svgs/sharp-regular/square-arrow-down-right.svg

<svg xmlns="http://www.w3.org/2000/svg" viewBox="0 0 448 512"><!--! Font Awesome Pro 6.6.0 by @fontawesome - https://fontawesome.com License - https://fontawesome.com/license (Commercial License) Copyright 2024 Fonticons, Inc. --><path d="M400 432l0-352L48 80l0 352 352 0zm48 48l-48 0L48 480 0 480l0-48L0 80 0 32l48 0 352 0 48 0 0 48 0 352 0 48zM312 368l-152 0-24 0 0-48 24 0 94.1 0L119 185l-17-17L136 134.1l17 17 135 135L288 184l0-24 48 0 0 24 0 160 0 24-24 0z"/></svg>

<svg xmlns="http://www.w3.org/2000/svg" viewBox="0 0 448 512"><!--! Font Awesome Pro 6.4.2 by @fontawesome - https://fontawesome.com License - https://fontawesome.com/license (Commercial License) Copyright 2023 Fonticons, Inc. --><path d="M400 432V80H48V432H400zm48 48H400 48 0V432 80 32H48 400h48V80 432v48zM312 368H160 136V320h24 94.1L119 185l-17-17L136 134.1l17 17 135 135V184 160h48v24V344v24H312z"/></svg>
